;FLAVOR:Marlin
;TIME:1121
;Filament used: 0.895052m
;Layer height: 0.2
;MINX:95.1
;MINY:105.1
;MINZ:0.2
;MAXX:139.9
;MAXY:129.9
;MAXZ:10
;Generated with Cura_SteamEngine 5.4.0
M140 S60
M105
M190 S60
M104 S195
M105
M109 S195
M82 ;absolute extrusion mode
; Ender 3 Custom Start G-code
G92 E0 ; Reset Extruder
G28 ; Home all axes
G1 Z2.0 F3000 ; Move Z Axis up little to prevent scratching of Heat Bed
G1 X0.1 Y20 Z0.3 F5000.0 ; Move to start position
G1 X0.1 Y200.0 Z0.3 F1500.0 E15 ; Draw the first line
G1 X0.4 Y200.0 Z0.3 F5000.0 ; Move to side a little
G1 X0.4 Y20 Z0.3 F1500.0 E30 ; Draw the second line
G92 E0 ; Reset Extruder
G1 Z2.0 F3000 ; Move Z Axis up little to prevent scratching of Heat Bed
G1 X5 Y20 Z0.3 F5000.0 ; Move over to prevent blob squish
G92 E0
G92 E0
G1 F1800 E-2
;LAYER_COUNT:50
;LAYER:0
M107
G0 F6000 X96.897 Y106.609 Z0.2
;TYPE:SKIRT
G1 F1800 E0
G1 F1200 X97.292 Y106.274 E0.01723
G1 X97.568 Y106.074 E0.02856
G1 X98.045 Y105.78 E0.0472
G1 X98.577 Y105.532 E0.06672
G1 X99.315 Y105.286 E0.0926
G1 X99.794 Y105.18 E0.10891
G1 X100.328 Y105.118 E0.12679
G1 X101.366 Y105.1 E0.16132
G1 X133.79 Y105.1 E1.23975
G1 X134.464 Y105.11 E1.26217
G1 X134.999 Y105.156 E1.28003
G1 X135.334 Y105.213 E1.29133
G1 X135.857 Y105.336 E1.3092
G1 X136.203 Y105.448 E1.3213
G1 X136.701 Y105.656 E1.33925
G1 X137.01 Y105.815 E1.3508
G1 X137.442 Y106.082 E1.3677
G1 X137.709 Y106.276 E1.37867
G1 X138.122 Y106.627 E1.3967
G1 X138.396 Y106.903 E1.40964
G1 X138.708 Y107.27 E1.42566
G1 X138.943 Y107.595 E1.439
G1 X139.24 Y108.084 E1.45803
G1 X139.466 Y108.571 E1.47588
G1 X139.712 Y109.305 E1.50163
G1 X139.812 Y109.744 E1.5166
G1 X139.882 Y110.32 E1.5359
G1 X139.9 Y111.366 E1.5707
G1 X139.9 Y123.753 E1.98269
G1 X139.89 Y124.462 E2.00628
G1 X139.844 Y124.999 E2.0242
G1 X139.786 Y125.339 E2.03567
G1 X139.642 Y125.941 E2.05626
G1 X139.458 Y126.448 E2.0742
G1 X139.167 Y127.038 E2.09608
G1 X138.977 Y127.355 E2.10837
G1 X138.724 Y127.706 E2.12276
G1 X138.509 Y127.963 E2.13391
G1 X138.107 Y128.382 E2.15322
G1 X137.756 Y128.687 E2.16869
G1 X137.382 Y128.958 E2.18405
G1 X137.027 Y129.174 E2.19787
G1 X136.573 Y129.402 E2.21477
G1 X136.223 Y129.544 E2.22733
G1 X135.652 Y129.725 E2.24725
G1 X135.206 Y129.82 E2.26242
G1 X134.672 Y129.882 E2.2803
G1 X133.634 Y129.9 E2.31483
G1 X101.21 Y129.9 E3.39326
G1 X100.536 Y129.89 E3.41568
G1 X99.969 Y129.84 E3.43461
G1 X99.669 Y129.789 E3.44473
G1 X99.156 Y129.668 E3.46226
G1 X98.811 Y129.557 E3.47431
G1 X98.301 Y129.345 E3.49268
G1 X97.959 Y129.168 E3.50549
G1 X97.581 Y128.934 E3.52028
G1 X97.267 Y128.705 E3.5332
G1 X96.878 Y128.373 E3.55021
G1 X96.604 Y128.097 E3.56315
G1 X96.273 Y127.706 E3.58019
G1 X96.074 Y127.432 E3.59145
G1 X95.78 Y126.955 E3.61009
G1 X95.531 Y126.421 E3.62968
G1 X95.285 Y125.681 E3.65562
G1 X95.18 Y125.207 E3.67177
G1 X95.118 Y124.679 E3.68945
G1 X95.1 Y123.634 E3.72421
G1 X95.1 Y111.21 E4.13744
G1 X95.11 Y110.536 E4.15986
G1 X95.156 Y110.001 E4.17772
G1 X95.211 Y109.671 E4.18884
G1 X95.331 Y109.16 E4.2063
G1 X95.442 Y108.815 E4.21836
G1 X95.654 Y108.304 E4.23676
G1 X95.815 Y107.99 E4.24849
G1 X96.082 Y107.558 E4.26538
G1 X96.275 Y107.292 E4.27631
G1 X96.6 Y106.907 E4.29307
G1 X96.897 Y106.609 E4.30707
G0 F6000 X97.156 Y106.914
G1 F1200 X97.527 Y106.598 E4.32327
G1 X97.803 Y106.398 E4.33461
G1 X98.254 Y106.121 E4.35221
G1 X98.704 Y105.911 E4.36873
G1 X99.403 Y105.676 E4.39326
G1 X99.842 Y105.577 E4.40823
G1 X100.335 Y105.518 E4.42474
G1 X101.373 Y105.5 E4.45927
G1 X133.784 Y105.5 E5.53726
G1 X134.43 Y105.509 E5.55875
G1 X134.965 Y105.555 E5.57661
G1 X135.243 Y105.602 E5.58599
G1 X135.734 Y105.717 E5.60276
G1 X136.08 Y105.829 E5.61486
G1 X136.518 Y106.012 E5.63065
G1 X136.827 Y106.171 E5.6422
G1 X137.207 Y106.406 E5.65707
G1 X137.474 Y106.6 E5.66804
G1 X137.839 Y106.91 E5.68397
G1 X138.091 Y107.162 E5.69582
G1 X138.403 Y107.529 E5.71184
G1 X138.602 Y107.804 E5.72313
G1 X138.878 Y108.254 E5.74069
G1 X139.087 Y108.699 E5.75704
G1 X139.322 Y109.394 E5.78145
G1 X139.422 Y109.833 E5.79642
G1 X139.482 Y110.327 E5.81297
G1 X139.5 Y111.373 E5.84777
G1 X139.5 Y123.748 E6.25936
G1 X139.491 Y124.428 E6.28198
G1 X139.445 Y124.965 E6.29991
G1 X139.397 Y125.247 E6.30942
G1 X139.265 Y125.807 E6.32856
G1 X139.099 Y126.272 E6.34498
G1 X138.824 Y126.832 E6.36573
G1 X138.634 Y127.149 E6.37802
G1 X138.417 Y127.45 E6.39036
G1 X138.22 Y127.686 E6.40059
G1 X137.818 Y128.105 E6.4199
G1 X137.521 Y128.363 E6.43299
G1 X137.147 Y128.634 E6.44835
G1 X136.847 Y128.817 E6.46004
G1 X136.421 Y129.032 E6.47591
G1 X136.101 Y129.163 E6.48741
G1 X135.567 Y129.334 E6.50606
G1 X135.158 Y129.423 E6.51998
G1 X134.665 Y129.482 E6.53649
G1 X133.627 Y129.5 E6.57102
G1 X101.216 Y129.5 E7.64902
G1 X100.57 Y129.491 E7.6705
G1 X100.035 Y129.445 E7.68836
G1 X99.76 Y129.399 E7.69764
G1 X99.279 Y129.287 E7.71406
G1 X98.934 Y129.176 E7.72612
G1 X98.484 Y128.989 E7.74233
G1 X98.17 Y128.828 E7.75406
G1 X97.792 Y128.594 E7.76885
G1 X97.526 Y128.4 E7.7798
G1 X97.161 Y128.09 E7.79573
G1 X96.909 Y127.838 E7.80758
G1 X96.597 Y127.471 E7.8236
G1 X96.398 Y127.197 E7.83486
G1 X96.121 Y126.746 E7.85247
G1 X95.91 Y126.294 E7.86906
G1 X95.675 Y125.593 E7.89365
G1 X95.577 Y125.159 E7.90845
G1 X95.518 Y124.672 E7.92476
G1 X95.5 Y123.627 E7.95953
G1 X95.5 Y111.216 E8.37232
G1 X95.509 Y110.57 E8.39381
G1 X95.555 Y110.035 E8.41167
G1 X95.601 Y109.761 E8.42091
G1 X95.712 Y109.283 E8.43723
G1 X95.823 Y108.938 E8.44928
G1 X96.01 Y108.487 E8.46552
G1 X96.171 Y108.173 E8.47726
G1 X96.406 Y107.793 E8.49212
G1 X96.599 Y107.527 E8.50305
G1 X96.905 Y107.166 E8.51879
G1 X97.156 Y106.914 E8.53062
G1 F1800 E6.53062
;MESH:LUXMD Assem1 - LUXMD Sensor Cover-1.STL
G0 F6000 X98.877 Y108.877
G0 X100.3 Y108.718
;TYPE:WALL-INNER
G1 F1800 E8.53062
G1 F1256.5 X100.603 Y108.7 E8.54026
G1 F1203 X134.395 Y108.7 E9.66138
G1 F1243.5 X134.606 Y108.713 E9.66816
G0 F6000 X135.728 Y109.272
G0 X135.728 Y125.728
G0 X134.716 Y126.364
G0 X134.782 Y126.656
G1 F1200 X135.218 Y126.515 E9.6834
G1 X135.557 Y126.343 E9.69605
G1 F1203 X135.848 Y126.132 E9.70797
G1 F1206 X136.131 Y125.847 E9.72126
G1 X136.343 Y125.557 E9.73315
G1 F1203 X136.558 Y125.131 E9.74898
G1 F1200 X136.668 Y124.673 E9.76465
G1 X136.7 Y124.419 E9.77316
G1 X136.7 Y110.58 E10.23345
G1 X136.656 Y110.218 E10.24558
G1 X136.487 Y109.695 E10.26386
G1 F1206 X136.237 Y109.284 E10.27978
G1 F1221.4 X135.999 Y109.001 E10.29186
G1 X135.716 Y108.763 E10.30395
G1 F1206 X135.382 Y108.562 E10.31685
G1 F1200 X135.039 Y108.419 E10.32921
G1 X134.674 Y108.332 E10.34169
G1 X134.418 Y108.301 E10.35026
G1 X100.58 Y108.3 E11.47572
G1 X100.218 Y108.344 E11.48785
G1 X99.695 Y108.513 E11.50613
G1 F1179.4 X99.289 Y108.77 E11.52239
G1 F1194 X99.001 Y109.001 E11.53473
G1 F1218.3 X98.764 Y109.284 E11.54683
G1 F1203 X98.561 Y109.618 E11.55979
G1 F1200 X98.418 Y109.961 E11.57215
G1 X98.332 Y110.324 E11.58456
G1 X98.3 Y110.581 E11.59317
G1 X98.3 Y124.42 E12.05346
G1 X98.344 Y124.782 E12.06559
G1 X98.513 Y125.305 E12.08387
G1 F1179.4 X98.77 Y125.711 E12.10013
G1 F1194 X99.001 Y125.999 E12.11247
G1 F1218.3 X99.284 Y126.236 E12.12457
G1 F1203 X99.618 Y126.439 E12.13753
G1 F1200 X99.961 Y126.582 E12.14989
G1 X100.326 Y126.668 E12.16237
G1 X100.581 Y126.7 E12.17091
G1 X134.42 Y126.7 E13.2964
G1 X134.782 Y126.656 E13.30853
G0 F6000 X134.7 Y126.282
G1 F1256.5 X134.397 Y126.3 E13.31817
G1 F1200 X100.605 Y126.3 E14.4421
G1 F1240.3 X100.394 Y126.287 E14.4489
G0 F6000 X99.272 Y125.728
G0 X98.718 Y124.7
G1 F1256.5 X98.7 Y124.397 E14.45854
G1 F1200 X98.7 Y110.604 E14.9173
G1 F1240.3 X98.713 Y110.392 E14.92414
G1 F1800 E12.92414
G0 F6000 X99.272 Y109.272
G0 X135.728 Y109.272
G0 X136.282 Y110.3
G1 F1800 E14.92414
G1 F1256.5 X136.3 Y110.603 E14.93378
G1 F1200 X136.3 Y124.395 E15.3925
G1 F1240.3 X136.287 Y124.605 E15.39927
G0 F6000 X135.971 Y125.241
G0 X135.455 Y126.129
G0 X135.567 Y125.842
G1 F1200 X135.364 Y125.9 E15.40629
G1 X99.7 Y125.9 E16.59248
G1 F1203 X99.487 Y125.861 E16.59967
G1 F1218.3 X99.278 Y125.722 E16.60789
G1 F1194 X99.131 Y125.516 E16.61635
G1 F1176.5 X99.099 Y125.3 E16.62376
G1 F1197 X99.1 Y109.7 E17.14391
G1 F1203 X99.139 Y109.487 E17.1511
G1 F1218.3 X99.278 Y109.278 E17.15932
G1 F1194 X99.484 Y109.131 E17.16778
G1 F1176.5 X99.7 Y109.099 E17.17519
G1 F1197 X135.3 Y109.1 E18.36221
G1 F1206 X135.513 Y109.14 E18.36938
G1 F1224.5 X135.689 Y109.248 E18.37611
G1 F1227.6 X135.816 Y109.391 E18.38233
G1 F1209.1 X135.9 Y109.7 E18.3929
G1 F1203 X135.902 Y125.365 E18.91262
G1 F1206 X135.811 Y125.614 E18.92139
G1 F1203 X135.567 Y125.842 E18.93247
G0 F6000 X135.417 Y125.465
;TYPE:WALL-OUTER
G1 F1200 X135.331 Y125.498 E18.93553
G1 F1203 X99.648 Y125.5 E20.11939
G1 X99.501 Y125.354 E20.12626
G1 X99.5 Y109.648 E20.64734
G1 X99.646 Y109.501 E20.65421
G1 F1200 X135.3 Y109.5 E21.84007
G1 X135.431 Y109.547 E21.8447
G1 F1203 X135.5 Y109.645 E21.84867
G1 X135.497 Y125.331 E22.36909
G1 X135.417 Y125.465 E22.37427
G1 F1800 E20.37427
G0 F6000 X135.391 Y126.147
G0 X134.716 Y126.364
G0 X134.868 Y127.049
G1 F1800 E22.37427
G1 F1200 X135.372 Y126.886 E22.39188
G1 X135.767 Y126.684 E22.40664
G1 X136.108 Y126.436 E22.42066
G1 X136.435 Y126.108 E22.43607
G1 F1203 X136.685 Y125.768 E22.45007
G1 X136.937 Y125.27 E22.46859
G1 F1200 X137.063 Y124.743 E22.48661
G1 X137.1 Y124.443 E22.49666
G1 X137.1 Y110.556 E22.95855
G1 X137.049 Y110.132 E22.97275
G1 X136.853 Y109.527 E22.9939
G1 X136.56 Y109.049 E23.01255
G1 X136.279 Y108.721 E23.02692
G1 F1203 X135.952 Y108.439 E23.04124
G1 X135.564 Y108.204 E23.05629
G1 F1200 X135.163 Y108.037 E23.07074
G1 X134.744 Y107.937 E23.08507
G1 X134.442 Y107.901 E23.09518
G1 X100.556 Y107.9 E24.22223
G1 X100.132 Y107.951 E24.23644
G1 X99.527 Y108.147 E24.25759
G1 X99.049 Y108.44 E24.27624
G1 X98.721 Y108.721 E24.2906
G1 F1203 X98.439 Y109.048 E24.30493
G1 X98.204 Y109.436 E24.31998
G1 F1200 X98.036 Y109.837 E24.33444
G1 X97.937 Y110.254 E24.34869
G1 X97.9 Y110.557 E24.35885
G1 X97.9 Y124.444 E24.82073
G1 X97.951 Y124.868 E24.83493
G1 X98.147 Y125.473 E24.85609
G1 X98.44 Y125.951 E24.87473
G1 X98.721 Y126.279 E24.8891
G1 F1203 X99.048 Y126.561 E24.90343
G1 X99.436 Y126.796 E24.91848
G1 F1200 X99.837 Y126.964 E24.93294
G1 X100.256 Y127.063 E24.94726
G1 X100.557 Y127.1 E24.95734
G1 X134.444 Y127.1 E26.08443
G1 X134.868 Y127.049 E26.09863
G1 F1800 E24.09863
;MESH:NONMESH
G0 F300 X134.868 Y127.049 Z0.4
G0 F6000 X134.716 Y126.364
G0 X135.728 Y125.728
G0 X135.728 Y109.272
G0 X100.564 Y108.119
G0 X99.947 Y107.102
G0 X97.156 Y106.914
;TIME_ELAPSED:47.672974
;LAYER:1
M106 S85
;TYPE:SKIRT
G1 F1800 E26.09863
G1 F1200 X97.527 Y106.598 E26.11484
G1 X97.803 Y106.398 E26.12618
G1 X98.254 Y106.121 E26.14378
G1 X98.704 Y105.911 E26.1603
G1 X99.403 Y105.676 E26.18483
G1 X99.842 Y105.577 E26.19979
G1 X100.335 Y105.518 E26.21631
G1 X101.373 Y105.5 E26.25084
G1 X133.784 Y105.5 E27.32883
G1 X134.43 Y105.509 E27.35032
G1 X134.965 Y105.555 E27.36818
G1 X135.243 Y105.602 E27.37756
G1 X135.734 Y105.717 E27.39433
G1 X136.08 Y105.829 E27.40643
G1 X136.518 Y106.012 E27.42221
G1 X136.827 Y106.171 E27.43377
G1 X137.207 Y106.406 E27.44863
G1 X137.474 Y106.6 E27.45961
G1 X137.839 Y106.91 E27.47554
G1 X138.091 Y107.162 E27.48739
G1 X138.403 Y107.529 E27.50341
G1 X138.602 Y107.804 E27.5147
G1 X138.878 Y108.254 E27.53226
G1 X139.087 Y108.699 E27.54861
G1 X139.322 Y109.394 E27.57301
G1 X139.422 Y109.833 E27.58799
G1 X139.482 Y110.327 E27.60454
G1 X139.5 Y111.373 E27.63933
G1 X139.5 Y123.748 E28.05093
G1 X139.491 Y124.428 E28.07355
G1 X139.445 Y124.965 E28.09147
G1 X139.397 Y125.247 E28.10099
G1 X139.265 Y125.807 E28.12012
G1 X139.099 Y126.272 E28.13655
G1 X138.824 Y126.832 E28.1573
G1 X138.634 Y127.149 E28.16959
G1 X138.417 Y127.45 E28.18193
G1 X138.22 Y127.686 E28.19215
G1 X137.818 Y128.105 E28.21147
G1 X137.521 Y128.363 E28.22455
G1 X137.147 Y128.634 E28.23991
G1 X136.847 Y128.817 E28.2516
G1 X136.421 Y129.032 E28.26747
G1 X136.101 Y129.163 E28.27897
G1 X135.567 Y129.334 E28.29762
G1 X135.158 Y129.423 E28.31154
G1 X134.665 Y129.482 E28.32806
G1 X133.627 Y129.5 E28.36259
G1 X101.216 Y129.5 E29.44058
G1 X100.57 Y129.491 E29.46207
G1 X100.035 Y129.445 E29.47993
G1 X99.76 Y129.399 E29.4892
G1 X99.279 Y129.287 E29.50563
G1 X98.934 Y129.176 E29.51768
G1 X98.484 Y128.989 E29.53389
G1 X98.17 Y128.828 E29.54563
G1 X97.792 Y128.594 E29.56042
G1 X97.526 Y128.4 E29.57137
G1 X97.161 Y128.09 E29.58729
G1 X96.909 Y127.838 E29.59915
G1 X96.597 Y127.471 E29.61517
G1 X96.398 Y127.197 E29.62643
G1 X96.121 Y126.746 E29.64403
G1 X95.91 Y126.294 E29.66063
G1 X95.675 Y125.593 E29.68522
G1 X95.577 Y125.159 E29.70001
G1 X95.518 Y124.672 E29.71633
G1 X95.5 Y123.627 E29.75109
G1 X95.5 Y111.216 E30.16388
G1 X95.509 Y110.57 E30.18537
G1 X95.555 Y110.035 E30.20323
G1 X95.601 Y109.761 E30.21247
G1 X95.712 Y109.283 E30.22879
G1 X95.823 Y108.938 E30.24085
G1 X96.01 Y108.487 E30.25709
G1 X96.171 Y108.173 E30.26882
G1 X96.406 Y107.793 E30.28368
G1 X96.599 Y107.527 E30.29461
G1 X96.905 Y107.166 E30.31035
G1 X97.156 Y106.914 E30.32218
G1 F1800 E28.32218
;MESH:LUXMD Assem1 - LUXMD Sensor Cover-1.STL
G0 F7500 X98.877 Y108.877
G0 X100.394 Y108.713
;TYPE:WALL-INNER
G1 F1800 E30.32218
G1 F1550.4 X100.605 Y108.7 E30.32899
G1 F1503.8 X134.4 Y108.7 E31.4502
G1 F1550.4 X134.596 Y108.711 E31.45652
G1 F1800 E29.45652
G0 F7500 X135.728 Y109.272
G0 X135.728 Y125.728
G0 X100.489 Y126.388
G0 X100.453 Y126.7
G1 F1800 E31.45652
G1 F1500 X134.42 Y126.7 E32.58627
G1 X134.782 Y126.656 E32.5984
G1 X135.218 Y126.515 E32.61364
G1 X135.557 Y126.343 E32.62628
G1 F1503.8 X135.848 Y126.132 E32.63821
G1 F1507.5 X136.131 Y125.847 E32.6515
G1 X136.343 Y125.557 E32.66339
G1 F1503.8 X136.559 Y125.132 E32.6792
G1 F1500 X136.7 Y124.546 E32.69925
G1 X136.7 Y110.581 E33.16373
G1 X136.668 Y110.324 E33.17234
G1 X136.582 Y109.961 E33.18475
G1 X136.438 Y109.618 E33.19712
G1 F1507.5 X136.237 Y109.284 E33.21002
G1 F1526.7 X135.999 Y109.001 E33.22211
G1 X135.716 Y108.763 E33.23419
G1 F1507.5 X135.382 Y108.562 E33.24709
G1 F1500 X135.039 Y108.419 E33.25945
G1 X134.551 Y108.301 E33.27615
G1 X100.581 Y108.3 E34.40599
G1 X100.326 Y108.332 E34.41454
G1 X99.961 Y108.418 E34.42701
G1 X99.618 Y108.561 E34.43937
G1 F1474.2 X99.289 Y108.77 E34.45257
G1 F1492.5 X99.001 Y109.001 E34.46491
G1 F1522.8 X98.764 Y109.284 E34.477
G1 F1503.8 X98.561 Y109.618 E34.48997
G1 F1500 X98.419 Y109.961 E34.50231
G1 X98.3 Y110.453 E34.51915
G1 X98.3 Y124.536 E34.98755
G1 X98.421 Y125.047 E35.00502
G1 X98.559 Y125.381 E35.01704
G1 F1474.2 X98.77 Y125.711 E35.03029
G1 F1492.5 X99.001 Y125.999 E35.04263
G1 F1522.8 X99.284 Y126.236 E35.05473
G1 F1503.8 X99.618 Y126.439 E35.0677
G1 F1500 X99.961 Y126.581 E35.08004
G1 X100.453 Y126.7 E35.09688
G0 F7500 X100.404 Y126.289
G1 F1546.4 X100.6 Y126.3 E35.10321
G1 F1500 X134.397 Y126.3 E36.2273
G1 F1570.7 X134.7 Y126.282 E36.23695
G0 F7500 X135.567 Y125.842
G1 F1500 X135.364 Y125.9 E36.24397
G1 X99.7 Y125.9 E37.43016
G1 F1503.8 X99.487 Y125.861 E37.43734
G1 F1522.8 X99.278 Y125.722 E37.44556
G1 F1492.5 X99.131 Y125.516 E37.45402
G1 F1470.6 X99.1 Y125.3 E37.46143
G1 F1496.3 X99.1 Y109.7 E37.98158
G1 F1503.8 X99.139 Y109.487 E37.98877
G1 F1522.8 X99.278 Y109.278 E37.99699
G1 F1492.5 X99.484 Y109.131 E38.00545
G1 F1470.6 X99.7 Y109.1 E38.01285
G1 F1496.3 X135.3 Y109.1 E39.19987
G1 F1507.5 X135.513 Y109.14 E39.20704
G1 F1530.6 X135.689 Y109.248 E39.21378
G1 F1534.5 X135.816 Y109.391 E39.21999
G1 F1511.3 X135.9 Y109.7 E39.23056
G1 F1503.8 X135.901 Y125.367 E39.75035
G1 F1507.5 X135.811 Y125.614 E39.75905
G1 F1503.8 X135.567 Y125.842 E39.77013
G0 F7500 X135.455 Y126.129
G0 X135.609 Y125.903
G0 X136.289 Y124.591
G1 F1542.4 X136.3 Y124.401 E39.77628
G1 F1500 X136.3 Y110.604 E40.23517
G1 F1550.4 X136.287 Y110.392 E40.24201
G1 F1800 E38.24201
G0 F7500 X135.728 Y109.272
G0 X99.272 Y109.272
G0 X98.711 Y110.404
G1 F1800 E40.24201
G1 F1542.4 X98.7 Y110.6 E40.24836
G1 F1500 X98.7 Y124.396 E40.70721
G1 F1546.4 X98.712 Y124.595 E40.71365
G1 F1800 E38.71365
G0 F7500 X99.272 Y125.728
G0 X134.409 Y126.401
G0 X134.444 Y127.1
;TYPE:WALL-OUTER
G1 F1800 E40.71365
G1 F1500 X134.868 Y127.049 E40.72785
G1 X135.372 Y126.886 E40.74547
G1 X135.767 Y126.684 E40.76022
