;FLAVOR:Marlin
;TIME:3138
;Filament used: 2.4529m
;Layer height: 0.2
;MINX:73.8
;MINY:52.125
;MINZ:0.2
;MAXX:161.2
;MAXY:182.875
;MAXZ:2.4
;Generated with Cura_SteamEngine 5.4.0
M140 S60
M105
M190 S60
M104 S195
M105
M109 S195
M82 ;absolute extrusion mode
; Ender 3 Custom Start G-code
G92 E0 ; Reset Extruder
G28 ; Home all axes
G1 Z2.0 F3000 ; Move Z Axis up little to prevent scratching of Heat Bed
G1 X0.1 Y20 Z0.3 F5000.0 ; Move to start position
G1 X0.1 Y200.0 Z0.3 F1500.0 E15 ; Draw the first line
G1 X0.4 Y200.0 Z0.3 F5000.0 ; Move to side a little
G1 X0.4 Y20 Z0.3 F1500.0 E30 ; Draw the second line
G92 E0 ; Reset Extruder
G1 Z2.0 F3000 ; Move Z Axis up little to prevent scratching of Heat Bed
G1 X5 Y20 Z0.3 F5000.0 ; Move over to prevent blob squish
G92 E0
G92 E0
G1 F1800 E-2
;LAYER_COUNT:12
;LAYER:0
M107
G0 F6000 X74.941 Y54.098 Z0.2
;TYPE:SKIRT
G1 F1800 E0
G1 F1200 X75.165 Y53.834 E0.01152
G1 X75.533 Y53.465 E0.02885
G1 X75.834 Y53.214 E0.04188
G1 X76.203 Y52.957 E0.05684
G1 X76.476 Y52.794 E0.06742
G1 X76.886 Y52.589 E0.08266
G1 X77.199 Y52.462 E0.0939
G1 X77.733 Y52.291 E0.11255
G1 X78.142 Y52.202 E0.12647
G1 X78.635 Y52.143 E0.14298
G1 X79.673 Y52.125 E0.17751
G1 X155.473 Y52.125 E2.69863
G1 X156.272 Y52.136 E2.72521
G1 X156.812 Y52.197 E2.74328
G1 X157.215 Y52.281 E2.75697
G1 X157.783 Y52.456 E2.77674
G1 X158.136 Y52.599 E2.78941
G1 X158.557 Y52.814 E2.80513
G1 X158.842 Y52.988 E2.81624
G1 X159.218 Y53.259 E2.83165
G1 X159.485 Y53.486 E2.84331
G1 X159.826 Y53.826 E2.85933
G1 X160.05 Y54.087 E2.87077
G1 X160.35 Y54.498 E2.88769
G1 X160.551 Y54.831 E2.90063
G1 X160.746 Y55.231 E2.91543
G1 X160.863 Y55.524 E2.92592
G1 X161.034 Y56.058 E2.94457
G1 X161.123 Y56.465 E2.95843
G1 X161.182 Y56.955 E2.97484
G1 X161.2 Y57.998 E3.00954
G1 X161.2 Y177.131 E6.97192
G1 X161.189 Y177.946 E6.99903
G1 X161.128 Y178.486 E7.0171
G1 X161.045 Y178.886 E7.03069
G1 X160.871 Y179.453 E7.05042
G1 X160.728 Y179.808 E7.06314
G1 X160.507 Y180.241 E7.07931
G1 X160.329 Y180.531 E7.09063
G1 X160.114 Y180.828 E7.10283
G1 X159.92 Y181.061 E7.11291
G1 X159.518 Y181.48 E7.13222
G1 X159.217 Y181.741 E7.14547
G1 X158.837 Y182.015 E7.16106
G1 X158.541 Y182.195 E7.17258
G1 X158.121 Y182.407 E7.18823
G1 X157.801 Y182.538 E7.19973
G1 X157.267 Y182.709 E7.21838
G1 X156.858 Y182.798 E7.2323
G1 X156.365 Y182.857 E7.24881
G1 X155.327 Y182.875 E7.28334
G1 X79.527 Y182.875 E9.80446
G1 X78.729 Y182.864 E9.831
G1 X78.188 Y182.803 E9.84911
G1 X77.785 Y182.719 E9.8628
G1 X77.217 Y182.544 E9.88257
G1 X76.868 Y182.403 E9.89509
G1 X76.445 Y182.188 E9.91087
G1 X76.15 Y182.008 E9.92237
G1 X75.771 Y181.733 E9.93794
G1 X75.516 Y181.516 E9.94908
G1 X75.249 Y181.252 E9.96157
G1 X75.046 Y181.021 E9.97179
G1 X74.695 Y180.56 E9.99107
G1 X74.484 Y180.224 E10.00426
G1 X74.277 Y179.817 E10.01945
G1 X74.144 Y179.495 E10.03104
G1 X73.967 Y178.946 E10.05022
G1 X73.877 Y178.535 E10.06422
G1 X73.818 Y178.045 E10.08063
G1 X73.8 Y177.002 E10.11533
G1 X73.8 Y57.852 E14.07827
G1 X73.811 Y57.054 E14.10482
G1 X73.872 Y56.514 E14.12289
G1 X73.955 Y56.114 E14.13648
G1 X74.129 Y55.547 E14.1562
G1 X74.273 Y55.192 E14.16895
G1 X74.491 Y54.765 E14.18489
G1 X74.668 Y54.475 E14.19619
G1 X74.941 Y54.098 E14.21167
G1 F1800 E12.21167
;MESH:LUXMD Assem1 - LUXMD Cover-1.STL
G0 F6000 X87.369 Y61.231
G0 X87.689 Y142.75
G0 X87.682 Y153.003
G0 X87.931 Y153.04
G0 X87.909 Y152.975
;TYPE:WALL-INNER
G1 F1800 E14.21167
G1 F1200 X87.627 Y152.646 E14.22609
G1 X87.51 Y152.263 E14.23941
G1 X87.516 Y61.209 E17.26787
G1 X87.586 Y60.941 E17.27709
G1 X87.766 Y60.655 E17.28833
G1 X88.085 Y60.419 E17.30152
G1 X88.381 Y60.325 E17.31185
G1 X146.641 Y60.325 E19.24959
G1 X146.915 Y60.419 E19.25922
G1 X147.234 Y60.655 E19.27242
G1 X147.414 Y60.941 E19.28366
G1 X147.484 Y61.209 E19.29287
G1 X147.49 Y152.263 E22.32134
G1 X147.423 Y152.538 E22.33076
G1 X147.169 Y152.91 E22.34574
G1 X146.849 Y153.109 E22.35827
G1 X146.592 Y153.175 E22.3671
G1 X88.445 Y153.173 E24.30107
G1 X88.229 Y153.135 E24.30837
G1 X87.909 Y152.975 E24.32027
G1 F1800 E22.32027
G0 F6000 X87.909 Y153.075
G0 X133.786 Y152.996
G0 X147.318 Y153.003
G0 X147.39 Y152.57
G0 X146.943 Y152.57
G1 F1800 E24.32027
G1 F1200 X146.754 Y152.715 E24.32819
G1 X146.529 Y152.774 E24.33593
G1 X88.471 Y152.774 E26.26694
G1 X88.295 Y152.736 E26.27293
G1 X88.102 Y152.616 E26.28049
G1 X87.95 Y152.393 E26.28947
G1 X87.914 Y152.25 E26.29437
G1 X87.913 Y61.255 E29.32088
G1 X87.955 Y61.095 E29.32638
G1 X88.064 Y60.923 E29.33315
G1 X88.255 Y60.781 E29.34107
G1 X88.431 Y60.725 E29.34721
G1 X146.582 Y60.725 E31.28132
G1 X146.745 Y60.781 E31.28705
G1 X146.936 Y60.923 E31.29497
G1 X147.045 Y61.095 E31.30174
G1 X147.086 Y61.255 E31.30724
G1 X147.09 Y152.25 E34.33374
G1 X146.943 Y152.57 E34.34546
G1 F1800 E32.34546
G0 F6000 X147.39 Y152.57
G0 X147.32 Y152.885
G0 X146.857 Y152.998
G0 X144.427 Y153.293
G0 X147.177 Y179.515
G0 X156.096 Y179.675
G1 F1800 E34.34546
G1 F1200 X156.396 Y179.639 E34.3555
G1 X156.765 Y179.519 E34.36841
G1 X157.047 Y179.375 E34.37894
G1 X157.286 Y179.201 E34.38877
G1 X157.526 Y178.961 E34.40006
G1 X157.701 Y178.722 E34.40992
G1 X157.844 Y178.439 E34.42046
G1 X157.946 Y178.124 E34.43147
G1 X158 Y177.77 E34.44338
G1 X158 Y57.227 E38.45266
G1 X157.964 Y56.93 E38.46261
G1 X157.844 Y56.56 E38.47555
G1 X157.7 Y56.278 E38.48608
G1 X157.526 Y56.038 E38.49594
G1 X157.287 Y55.799 E38.50718
G1 X157.047 Y55.625 E38.51704
G1 X156.765 Y55.481 E38.52757
G1 X156.449 Y55.379 E38.53862
G1 X156.092 Y55.325 E38.55063
G1 X78.904 Y55.325 E41.11791
G1 X78.604 Y55.361 E41.12796
G1 X78.235 Y55.481 E41.14086
G1 X77.953 Y55.625 E41.1514
G1 X77.713 Y55.799 E41.16126
G1 X77.474 Y56.038 E41.1725
G1 X77.3 Y56.278 E41.18236
G1 X77.155 Y56.56 E41.1929
G1 X77.054 Y56.876 E41.20394
G1 X77.001 Y57.23 E41.21584
G1 X77 Y177.771 E45.22505
G1 X77.036 Y178.07 E45.23507
G1 X77.156 Y178.439 E45.24798
G1 X77.299 Y178.722 E45.25852
G1 X77.474 Y178.961 E45.26837
G1 X77.714 Y179.201 E45.27966
G1 X77.953 Y179.375 E45.2895
G1 X78.235 Y179.519 E45.30003
G1 X78.551 Y179.621 E45.31107
G1 X78.908 Y179.675 E45.32308
G1 X156.096 Y179.675 E47.89036
G0 F6000 X156.12 Y180.075
G1 F1200 X156.482 Y180.032 E47.90249
G1 X156.918 Y179.89 E47.91774
G1 X157.257 Y179.717 E47.9304
G1 X157.547 Y179.506 E47.94233
G1 X157.83 Y179.222 E47.95566
G1 X158.043 Y178.932 E47.96763
G1 X158.215 Y178.592 E47.9803
G1 X158.334 Y178.224 E47.99317
G1 X158.4 Y177.791 E48.00773
G1 X158.4 Y57.203 E52.01851
G1 X158.357 Y56.844 E52.03053
G1 X158.215 Y56.407 E52.04581
G1 X158.042 Y56.068 E52.05847
G1 X157.831 Y55.778 E52.0704
G1 X157.547 Y55.494 E52.08376
G1 X157.257 Y55.283 E52.09569
G1 X156.918 Y55.11 E52.10835
G1 X156.549 Y54.991 E52.12124
G1 X156.114 Y54.925 E52.13588
G1 X78.88 Y54.925 E54.70469
G1 X78.518 Y54.968 E54.71681
G1 X78.082 Y55.11 E54.73207
G1 X77.743 Y55.283 E54.74472
G1 X77.453 Y55.494 E54.75665
G1 X77.169 Y55.778 E54.77001
G1 X76.958 Y56.068 E54.78194
G1 X76.785 Y56.407 E54.7946
G1 X76.666 Y56.775 E54.80746
G1 X76.601 Y57.208 E54.82202
G1 X76.6 Y177.795 E58.83276
G1 X76.643 Y178.156 E58.84486
G1 X76.785 Y178.593 E58.86014
G1 X76.957 Y178.932 E58.87278
G1 X77.17 Y179.222 E58.88475
G1 X77.453 Y179.506 E58.89808
G1 X77.743 Y179.717 E58.91001
G1 X78.082 Y179.89 E58.92267
G1 X78.451 Y180.009 E58.93557
G1 X78.886 Y180.075 E58.9502
G1 X156.12 Y180.075 E61.51901
G0 F6000 X156.568 Y180.424
;TYPE:WALL-OUTER
G1 F1200 X157.072 Y180.261 E61.53663
G1 X157.467 Y180.059 E61.55139
G1 X157.808 Y179.811 E61.56541
G1 X158.135 Y179.483 E61.58082
G1 X158.385 Y179.142 E61.59488
G1 X158.586 Y178.746 E61.60965
G1 X158.722 Y178.325 E61.62437
G1 X158.771 Y178.076 E61.63281
G1 X158.8 Y177.812 E61.64164
G1 X158.8 Y57.179 E65.65391
G1 X158.749 Y56.758 E65.66801
G1 X158.586 Y56.253 E65.68566
G1 X158.384 Y55.858 E65.70042
G1 X158.136 Y55.517 E65.71444
G1 X157.808 Y55.189 E65.72987
G1 X157.467 Y54.941 E65.7439
G1 X157.072 Y54.739 E65.75865
G1 X156.551 Y54.571 E65.77686
G1 X156.136 Y54.525 E65.79075
G1 X78.856 Y54.525 E68.36109
G1 X78.432 Y54.576 E68.37529
G1 X77.928 Y54.739 E68.39291
G1 X77.533 Y54.941 E68.40767
G1 X77.192 Y55.189 E68.42169
G1 X76.864 Y55.517 E68.43712
G1 X76.616 Y55.858 E68.45114
G1 X76.414 Y56.253 E68.4659
G1 X76.278 Y56.675 E68.48065
G1 X76.229 Y56.924 E68.48909
G1 X76.201 Y57.187 E68.49788
G1 X76.2 Y177.819 E72.51012
G1 X76.251 Y178.242 E72.52429
G1 X76.414 Y178.746 E72.54191
G1 X76.615 Y179.142 E72.55668
G1 X76.865 Y179.483 E72.57074
G1 X77.192 Y179.811 E72.58615
G1 X77.533 Y180.059 E72.60017
G1 X77.928 Y180.261 E72.61493
G1 X78.449 Y180.429 E72.63314
G1 X78.864 Y180.475 E72.64702
G1 X156.144 Y180.475 E75.21737
G1 X156.568 Y180.424 E75.23157
G1 F1800 E73.23157
G0 F6000 X156.416 Y179.739
G0 X147.39 Y179.515
G0 X147.63 Y152.368
G0 X147.39 Y61.266
G0 X146.689 Y61.266
G1 F1800 E75.23157
G1 F1200 X146.688 Y152.21 E78.25638
G1 X146.611 Y152.336 E78.26129
G1 X146.517 Y152.374 E78.26466
G1 X88.483 Y152.374 E80.19488
G1 X88.359 Y152.307 E80.19957
G1 X88.312 Y152.21 E80.20315
G1 X88.311 Y61.301 E83.2268
G1 X88.361 Y61.191 E83.23082
G1 X88.475 Y61.127 E83.23517
G1 X146.535 Y61.129 E85.16625
G1 X146.689 Y61.266 E85.17311
G1 F1800 E83.17311
G0 F6000 X147.39 Y61.266
G0 X147.316 Y127.031
G0 X147.318 Y153.003
G0 X130.682 Y153.003
G0 X88.44 Y153.313
G0 X77.597 Y178.857
G0 X77.874 Y179.242
G0 X78.042 Y179.017
;TYPE:SKIN
G1 F1800 E85.17311
G1 F1200 X77.751 Y178.727 E85.18677
G1 X77.494 Y178.309 E85.20309
G1 X77.39 Y177.992 E85.21419
G1 X77.361 Y177.746 E85.22243
G1 X77.361 Y57.251 E89.23011
G1 X77.405 Y56.965 E89.23973
G1 X77.489 Y56.7 E89.24898
G1 X77.658 Y56.368 E89.26137
G1 X78.043 Y55.983 E89.27948
G1 X78.373 Y55.815 E89.29179
G1 X78.681 Y55.715 E89.30256
G1 X78.93 Y55.685 E89.3109
G1 X156.069 Y55.685 E91.87656
G1 X156.362 Y55.73 E91.88642
G1 X156.625 Y55.814 E91.8956
G1 X156.957 Y55.983 E91.90799
G1 X157.342 Y56.368 E91.9261
G1 X157.51 Y56.698 E91.93842
G1 X157.61 Y57.007 E91.94922
G1 X157.64 Y57.253 E91.95746
G1 X157.64 Y177.747 E95.96511
G1 X157.595 Y178.034 E95.97477
G1 X157.468 Y178.427 E95.98851
G1 X157.245 Y178.731 E96.00105
G1 X157.056 Y178.921 E96.00996
G1 X156.852 Y179.069 E96.01834
G1 X156.626 Y179.185 E96.02679
G1 X156.319 Y179.285 E96.03753
G1 X156.07 Y179.315 E96.04587
G1 X78.931 Y179.315 E98.61153
G1 X78.638 Y179.27 E98.62139
G1 X78.375 Y179.186 E98.63057
G1 X78.042 Y179.017 E98.64299
G1 F1800 E96.64299
G0 F6000 X77.874 Y179.242
G0 X78.592 Y179.466
G0 X88.438 Y153.314
G0 X136.522 Y152.996
G0 X147.318 Y153.003
G0 X147.55 Y152.354
G0 X147.847 Y152.409
G1 F1800 E98.64299
G1 F1200 X147.849 Y61.211 E101.67625
G1 X147.747 Y60.803 E101.69023
G1 X147.501 Y60.41 E101.70566
G1 X147.101 Y60.112 E101.72225
G1 X146.811 Y60.003 E101.73255
G1 X146.51 Y59.966 E101.74264
G1 X88.324 Y59.967 E103.67791
G1 X87.928 Y60.092 E103.69172
G1 X87.498 Y60.412 E103.70955
G1 X87.255 Y60.801 E103.72481
G1 X87.151 Y61.205 E103.73868
G1 X87.152 Y152.305 E106.76868
G1 X87.243 Y152.669 E106.78116
G1 X87.404 Y152.968 E106.79245
G1 X87.586 Y153.178 E106.8017
G1 X88.012 Y153.441 E106.81835
G1 X88.421 Y153.533 E106.83229
G1 X146.593 Y153.532 E108.7671
G1 X146.985 Y153.443 E108.78047
G1 X147.305 Y153.266 E108.79263
G1 X147.513 Y153.074 E108.80205
G1 X147.693 Y152.816 E108.81251
G1 X147.847 Y152.409 E108.82698
G1 F1800 E106.82698
G0 F6000 X147.55 Y152.354
G0 X147.32 Y152.82
G0 X136.522 Y152.996
G0 X88.438 Y153.314
G0 X77.141 Y153.312
G0 X77.061 Y177.685
G0 X77.56 Y177.686
G1 F1800 E108.82698
G1 F1200 X78.988 Y179.114 E108.89415
G0 F6000 X79.553 Y179.114
G1 F1200 X77.56 Y177.121 E108.9879
G0 F6000 X77.56 Y176.555
G1 F1200 X80.119 Y179.114 E109.10826
G0 F6000 X80.685 Y179.114
G1 F1200 X77.56 Y175.989 E109.25525
G0 F6000 X77.56 Y175.424
G1 F1200 X81.25 Y179.114 E109.42882
G0 F6000 X81.816 Y179.114
G1 F1200 X77.56 Y174.858 E109.62901
G0 F6000 X77.56 Y174.292
G1 F1200 X82.382 Y179.114 E109.85582
G0 F6000 X82.947 Y179.114
G1 F1200 X77.56 Y173.726 E110.10923
G0 F6000 X77.56 Y173.161
G1 F1200 X83.513 Y179.114 E110.38924
G0 F6000 X84.079 Y179.114
G1 F1200 X77.56 Y172.595 E110.69588
G0 F6000 X77.56 Y172.029
G1 F1200 X84.644 Y179.114 E111.02911
G0 F6000 X85.21 Y179.114
G1 F1200 X77.56 Y171.464 E111.38894
G0 F6000 X77.56 Y170.898
G1 F1200 X85.776 Y179.114 E111.7754
G0 F6000 X86.341 Y179.114
G1 F1200 X77.56 Y170.332 E112.18845
G0 F6000 X77.56 Y169.767
G1 F1200 X86.907 Y179.114 E112.62811
G0 F6000 X87.473 Y179.114
G1 F1200 X77.56 Y169.201 E113.09439
G0 F6000 X77.56 Y168.635
G1 F1200 X88.039 Y179.114 E113.58729
G0 F6000 X88.604 Y179.114
G1 F1200 X77.56 Y168.07 E114.10676
G0 F6000 X77.56 Y167.504
G1 F1200 X89.17 Y179.114 E114.65286
G0 F6000 X89.736 Y179.114
G1 F1200 X77.56 Y166.938 E115.22558
G0 F6000 X77.56 Y166.373
G1 F1200 X90.301 Y179.114 E115.82488
G0 F6000 X90.867 Y179.114
G1 F1200 X77.56 Y165.807 E116.4508
G0 F6000 X77.56 Y165.241
G1 F1200 X91.433 Y179.114 E117.10334
G0 F6000 X91.998 Y179.114
G1 F1200 X77.56 Y164.675 E117.78249
G0 F6000 X77.56 Y164.11
G1 F1200 X92.564 Y179.114 E118.48823
G0 F6000 X93.13 Y179.114
G1 F1200 X77.56 Y163.544 E119.22059
G0 F6000 X77.56 Y162.978
G1 F1200 X93.695 Y179.114 E119.97956
G0 F6000 X94.261 Y179.114
G1 F1200 X77.56 Y162.413 E120.76512
G0 F6000 X77.56 Y161.847
G1 F1200 X94.827 Y179.114 E121.57731
G0 F6000 X95.392 Y179.114
G1 F1200 X77.56 Y161.281 E122.41609
G0 F6000 X77.56 Y160.716
G1 F1200 X95.958 Y179.114 E123.28148
G0 F6000 X96.524 Y179.114
G1 F1200 X77.56 Y160.15 E124.17349
G0 F6000 X77.56 Y159.584
G1 F1200 X97.09 Y179.114 E125.09212
G0 F6000 X97.655 Y179.114
G1 F1200 X77.56 Y159.019 E126.03733
G0 F6000 X77.56 Y158.453
G1 F1200 X98.221 Y179.114 E127.00916
G0 F6000 X98.787 Y179.114
G1 F1200 X77.56 Y157.887 E128.00761
G0 F6000 X77.56 Y157.322
G1 F1200 X99.352 Y179.114 E129.03264
G0 F6000 X99.918 Y179.114
G1 F1200 X77.56 Y156.756 E130.08429
G0 F6000 X77.56 Y156.19
G1 F1200 X100.484 Y179.114 E131.16257
G0 F6000 X101.049 Y179.114
G1 F1200 X77.56 Y155.625 E132.26742
G0 F6000 X77.56 Y155.059
G1 F1200 X101.615 Y179.114 E133.39889
G0 F6000 X102.181 Y179.114
G1 F1200 X77.56 Y154.493 E134.55699
G0 F6000 X77.56 Y153.927
G1 F1200 X102.746 Y179.114 E135.74168
G0 F6000 X103.312 Y179.114
G1 F1200 X77.56 Y153.362 E136.95298
G0 F6000 X77.56 Y152.796
G1 F1200 X103.878 Y179.114 E138.19089
G0 F6000 X104.443 Y179.114
G1 F1200 X77.56 Y152.23 E139.45541
G0 F6000 X77.56 Y151.665
G1 F1200 X105.009 Y179.114 E140.74653
G0 F6000 X105.575 Y179.114
G1 F1200 X77.56 Y151.099 E142.06427
G0 F6000 X77.56 Y150.533
G1 F1200 X106.14 Y179.114 E143.40861
G0 F6000 X106.706 Y179.114
G1 F1200 X77.56 Y149.968 E144.77955
G0 F6000 X77.56 Y149.402
G1 F1200 X107.272 Y179.114 E146.17711
G0 F6000 X107.838 Y179.114
G1 F1200 X77.56 Y148.836 E147.60129
G0 F6000 X77.56 Y148.271
G1 F1200 X108.403 Y179.114 E149.05205
G0 F6000 X108.969 Y179.114
G1 F1200 X77.56 Y147.705 E150.52944
G0 F6000 X77.56 Y147.139
G1 F1200 X109.535 Y179.114 E152.03344
G0 F6000 X110.1 Y179.114
G1 F1200 X77.56 Y146.574 E153.56402
G0 F6000 X77.56 Y146.008
G1 F1200 X110.666 Y179.114 E155.12123
G0 F6000 X111.232 Y179.114
G1 F1200 X77.56 Y145.442 E156.70506
G0 F6000 X77.56 Y144.876
G1 F1200 X111.797 Y179.114 E158.31548
G0 F6000 X112.363 Y179.114
G1 F1200 X77.56 Y144.311 E159.95251
G0 F6000 X77.56 Y143.745
G1 F1200 X112.929 Y179.114 E161.61616
G0 F6000 X113.494 Y179.114
G1 F1200 X88.035 Y153.655 E162.81367
G0 F6000 X88.676 Y153.729
G1 F1200 X114.06 Y179.114 E164.00768
G0 F6000 X114.626 Y179.114
G1 F1200 X89.241 Y153.729 E165.20171
G0 F6000 X89.807 Y153.729
G1 F1200 X115.191 Y179.114 E166.39572
G0 F6000 X115.757 Y179.114
G1 F1200 X90.373 Y153.729 E167.58973
G0 F6000 X90.938 Y153.729
G1 F1200 X116.323 Y179.114 E168.78376
G0 F6000 X116.888 Y179.114
G1 F1200 X91.504 Y153.729 E169.97777
G0 F6000 X92.07 Y153.729
G1 F1200 X117.454 Y179.114 E171.17178
G0 F6000 X118.02 Y179.114
G1 F1200 X92.635 Y153.729 E172.36581
G0 F6000 X93.201 Y153.729
G1 F1200 X118.586 Y179.114 E173.55985
G0 F6000 X119.151 Y179.114
G1 F1200 X93.767 Y153.729 E174.75386
G0 F6000 X94.332 Y153.729
G1 F1200 X119.717 Y179.114 E175.94789
G0 F6000 X120.283 Y179.114
G1 F1200 X94.898 Y153.729 E177.14192
G0 F6000 X95.464 Y153.729
G1 F1200 X120.848 Y179.114 E178.33593
