;FLAVOR:Marlin
;TIME:21254
;Filament used: 17.5116m
;Layer height: 0.2
;MINX:73.8
;MINY:50.125
;MINZ:0.2
;MAXX:171.411
;MAXY:191.066
;MAXZ:32
;Generated with Cura_SteamEngine 5.4.0
M140 S60
M105
M190 S60
M104 S195
M105
M109 S195
M82 ;absolute extrusion mode
; Ender 3 Custom Start G-code
G92 E0 ; Reset Extruder
G28 ; Home all axes
G1 Z2.0 F3000 ; Move Z Axis up little to prevent scratching of Heat Bed
G1 X0.1 Y20 Z0.3 F5000.0 ; Move to start position
G1 X0.1 Y200.0 Z0.3 F1500.0 E15 ; Draw the first line
G1 X0.4 Y200.0 Z0.3 F5000.0 ; Move to side a little
G1 X0.4 Y20 Z0.3 F1500.0 E30 ; Draw the second line
G92 E0 ; Reset Extruder
G1 Z2.0 F3000 ; Move Z Axis up little to prevent scratching of Heat Bed
G1 X5 Y20 Z0.3 F5000.0 ; Move over to prevent blob squish
G92 E0
G92 E0
G1 F1800 E-2
;LAYER_COUNT:160
;LAYER:0
M107
G0 F6000 X74.67 Y52.471 Z0.2
;TYPE:SKIRT
G1 F1800 E0
G1 F1200 X74.885 Y52.173 E0.01222
G1 X75.083 Y51.935 E0.02252
G1 X75.484 Y51.518 E0.04176
G1 X75.783 Y51.259 E0.05492
G1 X76.167 Y50.982 E0.07067
G1 X76.461 Y50.803 E0.08211
G1 X76.906 Y50.578 E0.0987
G1 X77.253 Y50.438 E0.11114
G1 X77.758 Y50.283 E0.12871
G1 X78.142 Y50.202 E0.14177
G1 X78.635 Y50.143 E0.15828
G1 X79.673 Y50.125 E0.19281
G1 X155.484 Y50.125 E2.71429
G1 X156.13 Y50.134 E2.73578
G1 X156.665 Y50.18 E2.75364
G1 X156.943 Y50.227 E2.76302
G1 X157.434 Y50.342 E2.77979
G1 X157.78 Y50.454 E2.79189
G1 X158.218 Y50.637 E2.80768
G1 X158.527 Y50.796 E2.81924
G1 X158.907 Y51.031 E2.8341
G1 X159.17 Y51.221 E2.84489
G1 X159.524 Y51.52 E2.8603
G1 X159.777 Y51.772 E2.87218
G1 X160.1 Y52.15 E2.88871
G1 X160.307 Y52.436 E2.90046
G1 X160.546 Y52.829 E2.91575
G1 X160.699 Y53.132 E2.92704
G1 X160.877 Y53.563 E2.94255
G1 X160.982 Y53.885 E2.95382
G1 X161.115 Y54.433 E2.97257
G1 X161.183 Y54.996 E2.99144
G1 X161.251 Y55.871 E3.02063
G1 X161.507 Y58.673 E3.11421
G1 X161.834 Y61.396 E3.20543
G1 X162.241 Y64.136 E3.29756
G1 X162.727 Y66.871 E3.38995
G1 X163.286 Y69.57 E3.48163
G1 X163.918 Y72.244 E3.57301
G1 X164.629 Y74.906 E3.66466
G1 X165.431 Y77.605 E3.7583
G1 X166.278 Y80.185 E3.84862
G1 X167.233 Y82.835 E3.94231
G1 X168.24 Y85.402 E4.03402
G1 X169.313 Y87.924 E4.12518
G1 X169.969 Y89.378 E4.17823
G1 X170.536 Y90.606 E4.22322
G1 X170.638 Y90.87 E4.23264
G1 X170.8 Y91.387 E4.25065
G1 X171.153 Y92.599 E4.29264
G1 X171.338 Y93.268 E4.31573
G1 X171.411 Y93.68 E4.32964
G1 X171.404 Y94.099 E4.34358
G1 X171.359 Y94.36 E4.35239
G1 X171.285 Y94.664 E4.3628
G1 X170.843 Y96.252 E4.41762
G1 X170.651 Y96.903 E4.4402
G1 X170.542 Y97.196 E4.45059
G1 X170.044 Y98.285 E4.49042
G1 X168.93 Y100.819 E4.58249
G1 X167.883 Y103.394 E4.67494
G1 X166.924 Y105.961 E4.76608
G1 X166.022 Y108.596 E4.85872
G1 X165.204 Y111.228 E4.95039
G1 X164.451 Y113.922 E5.04343
G1 X163.791 Y116.562 E5.13393
G1 X163.183 Y119.331 E5.22823
G1 X162.679 Y121.985 E5.31808
G1 X162.237 Y124.725 E5.41039
G1 X161.873 Y127.479 E5.50278
G1 X161.591 Y130.189 E5.5934
G1 X161.382 Y132.97 E5.68616
G1 X161.252 Y135.742 E5.77846
G1 X161.2 Y138.962 E5.88557
G1 X161.2 Y175.159 E7.08949
G1 X161.191 Y175.801 E7.11084
G1 X161.145 Y176.337 E7.12874
G1 X161.099 Y176.614 E7.13808
G1 X160.988 Y177.092 E7.1544
G1 X160.877 Y177.437 E7.16645
G1 X160.69 Y177.888 E7.18269
G1 X160.529 Y178.202 E7.19443
G1 X160.294 Y178.582 E7.20929
G1 X160.104 Y178.845 E7.22008
G1 X159.805 Y179.199 E7.23549
G1 X159.555 Y179.45 E7.24727
G1 X159.179 Y179.772 E7.26374
G1 X158.89 Y179.981 E7.2756
G1 X158.495 Y180.221 E7.29097
G1 X158.193 Y180.374 E7.30223
G1 X157.762 Y180.552 E7.31774
G1 X157.435 Y180.658 E7.32917
G1 X156.853 Y180.794 E7.34905
G1 X153.92 Y181.323 E7.44818
G1 X151.219 Y181.89 E7.53997
G1 X148.526 Y182.537 E7.63209
G1 X145.861 Y183.258 E7.72392
G1 X143.176 Y184.067 E7.81719
G1 X140.588 Y184.926 E7.90788
G1 X137.942 Y185.888 E8.00152
G1 X135.429 Y186.883 E8.09142
G1 X132.866 Y187.984 E8.1842
G1 X129.236 Y189.692 E8.31763
G1 X128.297 Y190.157 E8.35248
G1 X127.946 Y190.295 E8.36502
G1 X127.118 Y190.54 E8.39374
G1 X126.153 Y190.81 E8.42707
G1 X125.443 Y190.997 E8.45149
G1 X125.03 Y191.065 E8.46541
G1 X124.737 Y191.065 E8.47516
G1 X122.064 Y190.888 E8.56426
G1 X119.324 Y190.782 E8.65546
G1 X116.551 Y190.754 E8.74769
G1 X113.779 Y190.804 E8.83991
G1 X111 Y190.934 E8.93244
G1 X110.022 Y191.007 E8.96506
G1 X109.068 Y191.066 E8.99685
G1 X108.602 Y191.045 E9.01236
G1 X105.992 Y190.649 E9.10016
G1 X103.263 Y190.312 E9.19162
G1 X100.484 Y190.047 E9.28447
G1 X98.98 Y189.929 E9.33465
G1 X98.554 Y189.853 E9.34904
G1 X97.415 Y189.53 E9.38842
G1 X96.731 Y189.319 E9.41222
G1 X96.302 Y189.135 E9.42775
G1 X93.427 Y187.518 E9.53746
G1 X91.01 Y186.254 E9.62818
G1 X88.494 Y185.028 E9.72127
G1 X85.987 Y183.893 E9.8128
G1 X83.411 Y182.812 E9.90571
G1 X80.854 Y181.825 E9.99688
G1 X78.215 Y180.889 E10.09001
G1 X77.219 Y180.545 E10.12505
G1 X76.753 Y180.35 E10.14186
G1 X76.472 Y180.204 E10.15239
G1 X76.09 Y179.968 E10.16732
G1 X75.818 Y179.77 E10.17851
G1 X75.457 Y179.462 E10.1943
G1 X75.209 Y179.213 E10.20598
G1 X74.897 Y178.846 E10.22201
G1 X74.693 Y178.564 E10.23358
G1 X74.454 Y178.171 E10.24888
G1 X74.301 Y177.868 E10.26017
G1 X74.123 Y177.437 E10.27568
G1 X74.018 Y177.115 E10.28694
G1 X73.887 Y176.574 E10.30546
G1 X73.834 Y176.176 E10.31881
G1 X73.815 Y175.923 E10.32725
G1 X73.8 Y175.025 E10.35712
G1 X73.8 Y55.841 E14.3212
G1 X73.809 Y55.195 E14.34269
G1 X73.855 Y54.66 E14.36055
G1 X73.902 Y54.38 E14.36999
G1 X74.034 Y53.818 E14.38919
G1 X74.203 Y53.347 E14.40583
G1 X74.481 Y52.784 E14.42672
G1 X74.67 Y52.471 E14.43888
G1 F1800 E12.43888
G0 F6000 X78.247 Y51.727
G0 X78.801 Y51.661
G0 X156.199 Y51.661
G0 X157.133 Y51.838
G0 X157.665 Y52.058
G0 X158.155 Y52.359
G0 X158.592 Y52.733
G0 X158.966 Y53.17
G0 X159.267 Y53.66
G0 X159.487 Y54.192
G0 X159.63 Y54.948
G0 X160.354 Y91.627
G1 F1800 E14.43888
G1 F1200 X161.267 Y90.663 E14.48304
G1 X161.314 Y90.58 E14.48621
G1 X161.349 Y90.458 E14.49043
G1 X162.614 Y89.125 E14.55156
G1 X164.362 Y88.634 E14.61194
G1 X166.11 Y89.125 E14.67233
G1 X167.375 Y90.458 E14.73345
G1 X167.41 Y90.58 E14.73768
G1 X167.457 Y90.663 E14.74085
G1 X168.37 Y91.627 E14.78501
G1 X169.021 Y93.857 E14.86227
G1 X168.369 Y96.186 E14.94272
G1 X167.77 Y96.787 E14.97094
G1 X167.719 Y96.874 E14.97429
G1 X167.374 Y98.1 E15.01665
G1 X166.08 Y99.395 E15.07754
G1 X164.364 Y99.885 E15.1369
G1 X162.715 Y99.392 E15.19414
G1 X161.349 Y98.026 E15.2584
G1 X160.976 Y96.744 E15.3028
G1 X160.925 Y96.658 E15.30613
G1 X160.354 Y96.088 E15.33296
G1 X159.701 Y93.859 E15.41022
G1 X160.354 Y91.627 E15.48756
G0 F6000 X160.711 Y91.833
G1 F1200 X161.558 Y90.938 E15.52855
G1 X161.699 Y90.691 E15.53801
G1 X161.708 Y90.661 E15.53905
G1 X162.828 Y89.48 E15.59318
G1 X164.362 Y89.049 E15.64618
G1 X165.896 Y89.48 E15.69918
G1 X167.016 Y90.661 E15.75331
G1 X167.025 Y90.691 E15.75435
G1 X167.166 Y90.938 E15.76381
G1 X168.013 Y91.832 E15.80478
G1 X168.605 Y93.859 E15.87501
G1 X168.012 Y95.977 E15.94816
G1 X167.487 Y96.504 E15.97291
G1 X167.334 Y96.765 E15.98297
G1 X167.017 Y97.891 E16.02187
G1 X165.871 Y99.038 E16.0758
G1 X164.366 Y99.468 E16.12786
G1 X162.927 Y99.038 E16.17781
G1 X161.704 Y97.815 E16.23534
G1 X161.36 Y96.632 E16.27632
G1 X161.208 Y96.375 E16.28625
G1 X160.71 Y95.878 E16.30965
G1 X160.118 Y93.858 E16.37966
G1 X160.711 Y91.833 E16.44984
G0 F6000 X161.068 Y92.036
G1 F1200 X161.848 Y91.213 E16.48755
G1 X162.011 Y90.982 E16.49696
G1 X162.053 Y90.878 E16.50069
G1 X163.042 Y89.836 E16.54847
G1 X164.362 Y89.465 E16.59407
G1 X165.682 Y89.836 E16.63968
G1 X166.679 Y90.886 E16.68784
G1 X166.757 Y91.059 E16.69415
G1 X166.876 Y91.213 E16.70062
G1 X167.656 Y92.037 E16.73836
G1 X168.189 Y93.863 E16.80163
G1 X167.655 Y95.769 E16.86746
G1 X167.204 Y96.222 E16.88872
G1 X167.035 Y96.448 E16.89811
G1 X166.949 Y96.657 E16.90563
G1 X166.66 Y97.682 E16.94105
G1 X165.661 Y98.682 E16.98806
G1 X164.368 Y99.051 E17.03278
G1 X163.139 Y98.684 E17.07544
G1 X162.059 Y97.604 E17.12624
G1 X161.744 Y96.521 E17.16376
G1 X161.628 Y96.264 E17.17313
G1 X161.491 Y96.092 E17.18045
G1 X161.065 Y95.666 E17.20049
G1 X160.535 Y93.859 E17.26312
G1 X161.068 Y92.036 E17.32629
G0 F6000 X161.425 Y92.242
G1 F1200 X162.139 Y91.488 E17.36083
G1 X162.338 Y91.219 E17.37196
G1 X162.383 Y91.113 E17.37579
G1 X163.258 Y90.191 E17.41806
G1 X164.362 Y89.88 E17.45621
G1 X165.466 Y90.191 E17.49436
G1 X166.342 Y91.113 E17.53666
G1 X166.387 Y91.22 E17.54052
G1 X166.585 Y91.488 E17.5516
G1 X167.299 Y92.242 E17.58614
G1 X167.773 Y93.866 E17.64241
G1 X167.299 Y95.56 E17.70092
G1 X166.92 Y95.94 E17.71877
G1 X166.715 Y96.203 E17.72986
G1 X166.564 Y96.549 E17.74242
G1 X166.304 Y97.472 E17.77431
G1 X165.45 Y98.327 E17.8145
G1 X164.371 Y98.635 E17.85182
G1 X163.351 Y98.33 E17.88723
G1 X162.414 Y97.393 E17.93131
G1 X162.128 Y96.409 E17.96539
G1 X161.997 Y96.102 E17.97649
G1 X161.773 Y95.809 E17.98876
G1 X161.421 Y95.457 E18.00531
G1 X160.952 Y93.858 E18.06074
G1 X161.425 Y92.242 E18.11674
G0 F6000 X161.782 Y92.446
G1 F1200 X162.429 Y91.763 E18.14803
G1 X162.659 Y91.462 E18.16063
G1 X162.708 Y91.35 E18.1647
G1 X163.472 Y90.546 E18.20159
G1 X164.362 Y90.296 E18.23233
G1 X165.252 Y90.546 E18.26308
G1 X165.997 Y91.33 E18.29905
G1 X166.015 Y91.375 E18.30066
G1 X166.295 Y91.763 E18.31658
G1 X166.942 Y92.446 E18.34787
G1 X167.357 Y93.868 E18.39714
G1 X166.942 Y95.351 E18.44836
G1 X166.637 Y95.657 E18.46273
G1 X166.399 Y95.952 E18.47534
G1 X166.179 Y96.44 E18.49314
G1 X165.947 Y97.264 E18.52161
G1 X165.242 Y97.97 E18.5548
G1 X164.374 Y98.218 E18.58482
G1 X163.562 Y97.975 E18.61301
G1 X162.77 Y97.183 E18.65026
G1 X162.512 Y96.297 E18.68096
G1 X162.369 Y95.946 E18.69356
G1 X162.056 Y95.526 E18.71098
G1 X161.774 Y95.245 E18.72423
G1 X161.368 Y93.86 E18.77223
G1 X161.782 Y92.446 E18.82123
G0 F6000 X162.139 Y92.65
G1 F1200 X162.719 Y92.038 E18.84928
G1 X162.977 Y91.707 E18.86324
G1 X163.043 Y91.578 E18.86806
G1 X163.685 Y90.901 E18.89909
G1 X164.362 Y90.711 E18.92247
G1 X165.039 Y90.901 E18.94586
G1 X165.667 Y91.563 E18.97621
G1 X165.867 Y91.878 E18.98862
G1 X166.005 Y92.038 E18.99565
G1 X166.585 Y92.651 E19.02372
G1 X166.941 Y93.869 E19.06592
G1 X166.584 Y95.145 E19.10999
G1 X166.354 Y95.375 E19.12081
G1 X166.088 Y95.698 E19.13473
G1 X165.888 Y96.067 E19.14869
G1 X165.794 Y96.332 E19.15804
G1 X165.59 Y97.055 E19.18303
G1 X165.032 Y97.613 E19.20927
G1 X164.375 Y97.801 E19.232
G1 X163.774 Y97.621 E19.25287
G1 X163.125 Y96.972 E19.28339
G1 X162.896 Y96.185 E19.31066
G1 X162.742 Y95.796 E19.32457
G1 X162.516 Y95.443 E19.33851
G1 X162.338 Y95.243 E19.34742
G1 X162.129 Y95.035 E19.35722
G1 X161.785 Y93.86 E19.39795
G1 X162.139 Y92.65 E19.43988
G0 F6000 X162.495 Y92.857
G1 F1200 X163.01 Y92.313 E19.46479
G1 X163.293 Y91.956 E19.47994
G1 X163.367 Y91.818 E19.48515
G1 X163.9 Y91.256 E19.51091
G1 X164.362 Y91.126 E19.52688
G1 X164.824 Y91.256 E19.54284
G1 X165.359 Y91.82 E19.5687
G1 X165.504 Y92.06 E19.57802
G1 X165.714 Y92.313 E19.58896
G1 X166.228 Y92.856 E19.61383
G1 X166.525 Y93.872 E19.64903
G1 X166.227 Y94.936 E19.68578
G1 X166.071 Y95.092 E19.69312
G1 X165.778 Y95.442 E19.7083
G1 X165.552 Y95.837 E19.72344
G1 X165.409 Y96.223 E19.73713
G1 X165.234 Y96.846 E19.75865
G1 X164.822 Y97.258 E19.77803
G1 X164.378 Y97.385 E19.79339
G1 X163.984 Y97.267 E19.80707
G1 X163.481 Y96.764 E19.83073
G1 X163.28 Y96.074 E19.85464
G1 X163.115 Y95.649 E19.8698
G1 X162.879 Y95.26 E19.88493
G1 X162.621 Y94.96 E19.89809
G1 X162.485 Y94.824 E19.90449
G1 X162.202 Y93.857 E19.938
G1 X162.495 Y92.857 E19.97266
G0 F6000 X162.852 Y93.062
G1 F1200 X163.3 Y92.588 E19.99435
G1 X163.607 Y92.206 E20.01065
G1 X163.69 Y92.058 E20.0163
G1 X164.114 Y91.611 E20.03679
G1 X164.362 Y91.542 E20.04535
G1 X164.61 Y91.611 E20.05391
G1 X165.036 Y92.06 E20.0745
G1 X165.138 Y92.237 E20.08129
G1 X165.424 Y92.588 E20.09635
G1 X165.871 Y93.06 E20.11797
G1 X166.109 Y93.875 E20.14621
G1 X165.87 Y94.727 E20.17564
G1 X165.787 Y94.81 E20.17955
G1 X165.471 Y95.184 E20.19583
G1 X165.22 Y95.604 E20.21211
G1 X165.024 Y96.115 E20.23031
G1 X164.877 Y96.636 E20.24831
G1 X164.612 Y96.902 E20.2608
G1 X164.382 Y96.967 E20.26875
G1 X164.194 Y96.911 E20.27528
G1 X163.837 Y96.554 E20.29207
G1 X163.665 Y95.962 E20.31257
G1 X163.49 Y95.505 E20.32885
G1 X163.243 Y95.082 E20.34514
G1 X162.904 Y94.677 E20.36271
G1 X162.84 Y94.613 E20.36572
G1 X162.619 Y93.858 E20.39188
G1 X162.852 Y93.062 E20.41947
G0 F6000 X163.209 Y93.267
G1 F1200 X163.591 Y92.863 E20.43796
G1 X163.919 Y92.458 E20.45529
G1 X164.011 Y92.301 E20.46135
G1 X164.328 Y91.967 E20.47666
G1 X164.362 Y91.957 E20.47784
G1 X164.396 Y91.967 E20.47902
G1 X164.708 Y92.295 E20.49408
G1 X164.772 Y92.41 E20.49845
G1 X165.133 Y92.863 E20.51772
G1 X165.514 Y93.266 E20.53617
G1 X165.693 Y93.878 E20.55737
G1 X165.513 Y94.519 E20.57952
G1 X165.504 Y94.528 E20.57994
G1 X165.166 Y94.924 E20.59726
G1 X164.891 Y95.367 E20.6146
G1 X164.639 Y96.006 E20.63745
G1 X164.52 Y96.428 E20.65203
G1 X164.402 Y96.546 E20.65758
G1 X164.397 Y96.548 E20.65776
G1 X164.193 Y96.344 E20.66735
G1 X164.049 Y95.85 E20.68447
G1 X163.865 Y95.362 E20.70182
G1 X163.609 Y94.908 E20.71915
G1 X163.197 Y94.407 E20.74072
G1 X163.036 Y93.858 E20.75975
G1 X163.209 Y93.267 E20.78024
G0 F6000 X163.566 Y93.471
G1 F1200 X163.881 Y93.138 E20.79548
G1 X164.23 Y92.711 E20.81382
G1 X164.326 Y92.552 E20.82
G1 X164.362 Y92.514 E20.82174
G1 X164.381 Y92.533 E20.82264
G1 X164.405 Y92.578 E20.82433
G1 X164.843 Y93.138 E20.84798
G1 X165.157 Y93.47 E20.86318
G1 X165.277 Y93.88 E20.87739
G1 X165.153 Y94.325 E20.89275
G1 X164.861 Y94.663 E20.90761
G1 X164.566 Y95.128 E20.92592
G1 X164.369 Y95.566 E20.9419
G1 X164.241 Y95.222 E20.9541
G1 X163.976 Y94.738 E20.97246
G1 X163.559 Y94.223 E20.9945
G1 X163.452 Y93.858 E21.00715
G1 X163.566 Y93.471 E21.02057
G1 F1800 E19.02057
G0 F6000 X162.97 Y93.857
G0 X159.618 Y176.262
G0 X159.487 Y176.808
G0 X159.267 Y177.34
G0 X158.966 Y177.83
G0 X158.592 Y178.267
G0 X158.155 Y178.641
G0 X157.665 Y178.942
G0 X157.133 Y179.162
G0 X156.377 Y179.305
G0 X127.204 Y180.052
G1 F1800 E21.02057
G1 F1200 X128.879 Y181.818 E21.10152
G1 X129.525 Y184.035 E21.17833
G1 X128.876 Y186.353 E21.25839
G1 X127.206 Y188.023 E21.33694
G1 X124.888 Y188.672 E21.417
G1 X122.671 Y188.024 E21.49382
G1 X120.903 Y186.256 E21.57699
G1 X120.253 Y184.037 E21.65389
G1 X120.901 Y181.818 E21.73078
G1 X122.576 Y180.052 E21.81173
G1 X124.89 Y179.403 E21.89167
G1 X127.204 Y180.052 E21.9716
G0 F6000 X126.99 Y180.407
G1 F1200 X128.522 Y182.022 E22.04564
G1 X129.109 Y184.037 E22.11544
G1 X128.519 Y186.144 E22.18822
G1 X126.997 Y187.666 E22.25981
G1 X124.891 Y188.256 E22.33255
G1 X122.882 Y187.669 E22.40216
G1 X121.258 Y186.045 E22.47855
G1 X120.67 Y184.036 E22.54818
G1 X121.258 Y182.022 E22.61796
G1 X122.79 Y180.407 E22.692
G1 X124.89 Y179.818 E22.76454
G1 X126.99 Y180.407 E22.83708
G0 F6000 X126.775 Y180.762
G1 F1200 X128.165 Y182.228 E22.90427
G1 X128.693 Y184.04 E22.96705
G1 X128.162 Y185.935 E23.0325
G1 X126.788 Y187.309 E23.09713
G1 X124.894 Y187.84 E23.16255
G1 X123.093 Y187.314 E23.22496
G1 X121.613 Y185.834 E23.29457
G1 X121.087 Y184.035 E23.35691
G1 X121.615 Y182.228 E23.41953
G1 X123.005 Y180.762 E23.48672
G1 X124.89 Y180.234 E23.55183
G1 X126.775 Y180.762 E23.61694
G0 F6000 X126.561 Y181.118
G1 F1200 X127.808 Y182.432 E23.67719
G1 X128.277 Y184.043 E23.73299
G1 X127.806 Y185.725 E23.79109
G1 X126.578 Y186.953 E23.84885
G1 X124.897 Y187.424 E23.90691
G1 X123.303 Y186.958 E23.96215
G1 X121.968 Y185.623 E24.02494
G1 X121.504 Y184.036 E24.07994
G1 X121.972 Y182.432 E24.13551
G1 X123.219 Y181.118 E24.19576
G1 X124.89 Y180.649 E24.25349
G1 X126.561 Y181.118 E24.31121
G0 F6000 X126.346 Y181.473
G1 F1200 X127.451 Y182.638 E24.36462
G1 X127.861 Y184.046 E24.41339
G1 X127.45 Y185.515 E24.46413
G1 X126.368 Y186.597 E24.51502
G1 X124.9 Y187.008 E24.56573
G1 X123.514 Y186.603 E24.61375
G1 X122.324 Y185.413 E24.66973
G1 X121.921 Y184.035 E24.71748
G1 X122.329 Y182.638 E24.76589
G1 X123.434 Y181.473 E24.81929
G1 X124.89 Y181.064 E24.86959
G1 X126.346 Y181.473 E24.91989
G0 F6000 X126.132 Y181.828
G1 F1200 X127.094 Y182.842 E24.96638
G1 X127.445 Y184.047 E25.00813
G1 X127.093 Y185.306 E25.05161
G1 X126.159 Y186.24 E25.09554
